images/traning-4.svg

<svg width="63" height="41" viewBox="0 0 63 41" fill="none" xmlns="http://www.w3.org/2000/svg">
<path d="M34.8997 13.5341L34.907 20.4233C34.907 20.6644 35.0092 20.8836 35.1992 21.037C35.3818 21.1904 35.6156 21.2489 35.8494 21.1977C36.0686 21.1539 36.2877 21.132 36.4996 21.132C37.3325 21.132 38.1069 21.4534 38.6913 22.0379C39.2758 22.6223 39.6045 23.404 39.6045 24.2369C39.6045 25.0624 39.2758 25.8514 38.6913 26.4359C38.1069 27.0204 37.3398 27.3418 36.4996 27.3418C36.2877 27.3418 36.0613 27.3199 35.8567 27.2687C35.6229 27.2176 35.3818 27.2761 35.1919 27.4295C35.0166 27.5756 34.907 27.8167 34.8997 28.0358L34.8997 34.9397C34.8997 35.378 35.2576 35.7214 35.6887 35.7287L41.7159 35.7214C41.7159 35.736 41.7159 35.7433 41.7159 35.7433C41.7159 36.9999 42.198 38.1761 43.0893 39.0601C43.9733 39.9368 45.1422 40.4263 46.3988 40.4263C47.6408 40.4263 48.8243 39.9368 49.6937 39.0528C50.5923 38.1688 51.0744 36.9999 51.0744 35.7506C51.0744 35.7506 51.0744 35.736 51.0744 35.7214L57.0797 35.7214C57.2916 35.7214 57.4961 35.6337 57.6495 35.4949C57.7957 35.3415 57.8833 35.1443 57.8833 34.9397L57.8833 28.9125C57.8979 28.9198 57.8979 28.9125 57.8979 28.9125C59.1545 28.9125 60.3234 28.4303 61.2074 27.5391C62.0914 26.6624 62.5809 25.4862 62.5809 24.2296C62.5809 22.9876 62.0987 21.8114 61.2074 20.9274C60.3161 20.0434 59.1545 19.5539 57.8979 19.5539C57.8979 19.5539 57.8979 19.5539 57.8833 19.5539L57.8833 13.5268C57.8833 13.3149 57.7956 13.1176 57.6568 12.9715C57.5034 12.8254 57.2989 12.7451 57.1016 12.7451L50.2051 12.7451C49.9932 12.7451 49.7886 12.8327 49.6498 12.9715C49.6352 12.9861 49.606 13.0154 49.5914 13.03C49.438 13.2272 49.3795 13.461 49.438 13.6875C49.4818 13.914 49.4964 14.1331 49.4964 14.345C49.4964 15.1705 49.1823 15.9596 48.5978 16.544C48.0133 17.1285 47.2243 17.4499 46.3988 17.4499C44.6893 17.4499 43.2866 16.0545 43.2866 14.345C43.2866 14.1331 43.3158 13.8994 43.3596 13.6875C43.4035 13.461 43.345 13.2272 43.2062 13.03C43.0528 12.8473 42.8336 12.7451 42.5925 12.7451L35.6887 12.7451C35.2722 12.7451 34.907 13.1176 34.8997 13.5341Z" fill="#1D5C73"/>
<path d="M13.6673 0.434945C13.4554 0.464168 13.2727 0.581058 13.1485 0.734477L8.95509 6.21374C8.83089 6.36716 8.77245 6.60094 8.80167 6.79819C8.80167 6.81281 8.80898 6.85664 8.80898 6.87125C8.87473 7.11234 9.02815 7.30228 9.24001 7.39726C9.44457 7.49223 9.63452 7.60912 9.80985 7.74062C10.4601 8.25202 10.8838 8.96798 10.9934 9.79352C11.1103 10.6191 10.8911 11.4373 10.3943 12.0875C9.3496 13.4537 7.39898 13.7167 6.04012 12.672C5.87209 12.5331 5.71137 12.4016 5.56526 12.2263C5.41184 12.051 5.18536 11.9487 4.93697 11.9487C4.71049 11.9633 4.48402 12.0729 4.34521 12.2701L0.159055 17.7494C-0.10395 18.0782 -0.0308932 18.5969 0.305168 18.8526L5.78443 23.0314C5.97437 23.1848 6.21546 23.236 6.44924 23.1775C6.67572 23.1191 6.86567 22.973 6.96795 22.7538C7.07023 22.5565 7.17981 22.3593 7.31131 22.1913C7.8081 21.5337 8.53867 21.1027 9.36421 20.9931C10.1824 20.8835 11.0007 21.1027 11.6582 21.5995C12.323 22.1109 12.7467 22.8415 12.8563 23.6597C12.9659 24.4779 12.7467 25.2962 12.2426 25.9537C12.1184 26.1217 11.965 26.2897 11.797 26.4285C11.6217 26.582 11.5121 26.8084 11.5267 27.0568C11.5267 27.2833 11.6582 27.5098 11.8335 27.6559L17.3128 31.8421C17.6562 32.1051 18.1529 32.032 18.4232 31.6886L22.0761 26.8961L22.0907 26.9253C23.0843 27.6705 24.3116 28.0066 25.5536 27.8385C26.7882 27.6778 27.8987 27.0349 28.6512 26.0413C29.411 25.0478 29.7324 23.8131 29.5644 22.5785C29.4037 21.3365 28.7681 20.2333 27.7745 19.4808C27.7745 19.4808 27.7672 19.4735 27.7526 19.4589L31.4054 14.681C31.5369 14.5203 31.5808 14.3011 31.5662 14.0893C31.5369 13.892 31.4274 13.6948 31.2666 13.5779L26.4814 9.92502C26.4814 9.91041 26.4814 9.91041 26.4814 9.91041C27.2412 8.90953 27.5627 7.68218 27.3946 6.44021C27.2339 5.19825 26.5983 4.11701 25.5974 3.34261C24.6112 2.58282 23.3765 2.26137 22.1418 2.4294C20.9072 2.60473 19.8113 3.22572 19.0442 4.22659C19.0442 4.22659 19.0515 4.22659 19.0369 4.2412L14.2517 0.573755C14.0764 0.449558 13.8718 0.405723 13.6673 0.434945Z" fill="#FF8901"/>
</svg>

<svg width="63" height="41" fill="none" xmlns="http://www.w3.org/2000/svg"><path d="M34.9 13.534l.007 6.89c0 .24.102.46.292.613a.749.749 0 00.65.16 3.33 3.33 0 01.65-.065 3.07 3.07 0 012.192.906 3.108 3.108 0 010 4.398 3.059 3.059 0 01-2.834.833.785.785 0 00-.665.16.86.86 0 00-.292.607v6.904c0 .438.358.781.789.789l6.027-.008v.022c0 1.257.482 2.433 1.373 3.317a4.665 4.665 0 003.31 1.366c1.242 0 2.425-.49 3.295-1.373a4.584 4.584 0 001.38-3.302v-.03h6.006a.86.86 0 00.57-.226.811.811 0 00.233-.555v-6.027c.015.007.015 0 .015 0a4.612 4.612 0 003.31-1.374 4.629 4.629 0 001.373-3.31 4.62 4.62 0 00-1.374-3.302 4.654 4.654 0 00-3.31-1.373h-.014v-6.027a.81.81 0 00-.226-.555.817.817 0 00-.555-.227h-6.897a.797.797 0 00-.555.227l-.059.058a.753.753 0 00-.153.658c.044.226.058.445.058.657 0 .825-.314 1.615-.898 2.199a3.1 3.1 0 01-2.2.906 3.118 3.118 0 01-3.111-3.105c0-.212.029-.446.073-.658a.858.858 0 00-.154-.657.791.791 0 00-.614-.285H35.69c-.417 0-.782.373-.79.79z" fill="#1D5C73"/><path d="M13.667.435a.818.818 0 00-.518.3L8.954 6.213a.793.793 0 00-.153.584c0 .015.007.059.007.073.066.241.22.431.431.526.205.095.395.212.57.344a3.11 3.11 0 011.183 2.053 3.056 3.056 0 01-.599 2.293 3.102 3.102 0 01-4.354.585c-.168-.139-.329-.27-.475-.446a.828.828 0 00-.628-.277.785.785 0 00-.592.321L.16 17.75c-.263.328-.19.847.146 1.103l5.48 4.178a.75.75 0 00.664.146.774.774 0 00.519-.423c.102-.198.212-.395.343-.563a3.067 3.067 0 012.053-1.198 3.11 3.11 0 013.492 2.667c.11.818-.11 1.636-.613 2.294a2.732 2.732 0 01-.446.474.775.775 0 00-.27.629c0 .226.131.453.307.599l5.479 4.186a.8.8 0 001.11-.153l3.653-4.793.015.03a4.695 4.695 0 003.463.913 4.623 4.623 0 003.097-1.798 4.64 4.64 0 00.913-3.463 4.597 4.597 0 00-1.79-3.097l-.021-.022 3.652-4.778c.132-.16.176-.38.161-.592a.789.789 0 00-.3-.511l-4.785-3.653V9.91c.76-1 1.082-2.228.914-3.47-.161-1.242-.797-2.323-1.798-3.097a4.614 4.614 0 00-3.455-.914 4.684 4.684 0 00-3.098 1.798s.008 0-.007.014L14.252.574a.8.8 0 00-.585-.14z" fill="#FF8901"/></svg>
